PortableApps/LibreOfficePortable/App/libreoffice/help/media/icon-themes/cmd/sc_insertcolumnbreak.svg

<svg viewBox="0 0 16 16" xmlns="http://www.w3.org/2000/svg"><path d="m2 1h12v14h-12z" fill="#fff"/><path d="m8.4511719 3c-.2504416 0-.4511719.2007303-.4511719.4511719v.0488281.0488281 9.4511719h-2.5488281c-.2504416 0-.4511719.20073-.4511719.451172v.097656c0 .250442.2007303.451172.4511719.451172h3.0976562c.2504416 0 .4511719-.20073.4511719-.451172v-.097656-9.451172h2.548828c.250442 0 .451172-.2007303.451172-.4511719v-.0976562c0-.2504416-.20073-.4511719-.451172-.4511719h-3.048828z" fill="#4d82b8"/><path d="m2 0c-.554 0-1 .446-1 1v14c0 .554.446 1 1 1h12c.554 0 1-.446 1-1v-14c0-.554-.446-1-1-1zm0 1h12v14h-12zm1.5 2c-.277 0-.5.223-.5.5s.223.5.5.5h3c.277 0 .5-.223.5-.5s-.223-.5-.5-.5zm0 4c-.277 0-.5.223-.5.5s.223.5.5.5h3c.277 0 .5-.223.5-.5s-.223-.5-.5-.5zm7 0c-.277 0-.5.223-.5.5s.223.5.5.5h2c.277 0 .5-.223.5-.5s-.223-.5-.5-.5zm-7 3c-.277 0-.5.223-.5.5s.223.5.5.5h3c.277 0 .5-.223.5-.5s-.223-.5-.5-.5zm7 0c-.277 0-.5.223-.5.5s.223.5.5.5h2c.277 0 .5-.223.5-.5s-.223-.5-.5-.5zm-.048828 3c-.250442 0-.451172.20073-.451172.451172v.097656c0 .250442.20073.451172.451172.451172h2.097656c.250442 0 .451172-.20073.451172-.451172v-.097656c0-.250442-.20073-.451172-.451172-.451172z" fill="#808080"/></svg>

<svg viewBox="0 0 16 16" xmlns="http://www.w3.org/2000/svg">
 <path
   d="M 2,1 H 14 V 15 H 2 Z"
   style="fill:#ffffff"
   />
<path
   style="fill:#4d82b8"
   d="M 8.4511719 3 C 8.2007303 3 8 3.2007303 8 3.4511719 L 8 3.5 L 8 3.5488281 L 8 13 L 5.4511719 13 C 5.2007303 13 5 13.20073 5 13.451172 L 5 13.548828 C 5 13.79927 5.2007303 14 5.4511719 14 L 8.5488281 14 C 8.7992697 14 9 13.79927 9 13.548828 L 9 13.451172 L 9 4 L 11.548828 4 C 11.79927 4 12 3.7992697 12 3.5488281 L 12 3.4511719 C 12 3.2007303 11.79927 3 11.548828 3 L 8.5 3 L 8.4511719 3 z " />
<path
   style="fill:#808080"
   d="M 2 0 C 1.446 0 1 0.446 1 1 L 1 15 C 1 15.554 1.446 16 2 16 L 14 16 C 14.554 16 15 15.554 15 15 L 15 1 C 15 0.446 14.554 0 14 0 L 2 0 z M 2 1 L 14 1 L 14 15 L 2 15 L 2 1 z M 3.5 3 C 3.223 3 3 3.223 3 3.5 C 3 3.777 3.223 4 3.5 4 L 6.5 4 C 6.777 4 7 3.777 7 3.5 C 7 3.223 6.777 3 6.5 3 L 3.5 3 z M 3.5 7 C 3.223 7 3 7.223 3 7.5 C 3 7.777 3.223 8 3.5 8 L 6.5 8 C 6.777 8 7 7.777 7 7.5 C 7 7.223 6.777 7 6.5 7 L 3.5 7 z M 10.5 7 C 10.223 7 10 7.223 10 7.5 C 10 7.777 10.223 8 10.5 8 L 12.5 8 C 12.777 8 13 7.777 13 7.5 C 13 7.223 12.777 7 12.5 7 L 10.5 7 z M 3.5 10 C 3.223 10 3 10.223 3 10.5 C 3 10.777 3.223 11 3.5 11 L 6.5 11 C 6.777 11 7 10.777 7 10.5 C 7 10.223 6.777 10 6.5 10 L 3.5 10 z M 10.5 10 C 10.223 10 10 10.223 10 10.5 C 10 10.777 10.223 11 10.5 11 L 12.5 11 C 12.777 11 13 10.777 13 10.5 C 13 10.223 12.777 10 12.5 10 L 10.5 10 z M 10.451172 13 C 10.20073 13 10 13.20073 10 13.451172 L 10 13.548828 C 10 13.79927 10.20073 14 10.451172 14 L 12.548828 14 C 12.79927 14 13 13.79927 13 13.548828 L 13 13.451172 C 13 13.20073 12.79927 13 12.548828 13 L 10.451172 13 z " />
</svg>
